symbols/web/visibility_off/materialsymbolsoutlined/visibility_off_wght200_20px.svg

<svg xmlns="http://www.w3.org/2000/svg" height="20" width="20"><path d="m12.979 10.479-.729-.729q.083-1.104-.698-1.823-.781-.719-1.74-.615l-.729-.729q.209-.062.438-.083.229-.021.479-.021 1.292 0 2.188.896.895.896.895 2.187 0 .292-.031.542-.031.25-.073.375Zm2.604 2.563-.666-.625q.75-.584 1.333-1.271.583-.688 1-1.584-1.021-2.083-2.958-3.281Q12.354 5.083 10 5.083q-.604 0-1.115.073-.51.073-1.01.219l-.729-.729q.729-.271 1.437-.375.709-.104 1.417-.104 2.729 0 4.979 1.468 2.25 1.469 3.292 3.927-.459 1-1.125 1.865-.667.865-1.563 1.615Zm.75 4.604-3.208-3.25q-.542.25-1.354.427Q10.958 15 10 15q-2.75 0-4.979-1.49-2.229-1.489-3.292-3.948.459-1.083 1.261-2.031.802-.948 1.677-1.593L2.333 3.625 3.021 3l13.958 13.979ZM5.292 6.542q-.709.52-1.438 1.323-.729.802-1.125 1.697 1.021 2.084 2.959 3.303Q7.625 14.083 10 14.083q.667 0 1.385-.114.719-.115 1.032-.281l-1.292-1.25q-.146.083-.5.145-.354.063-.625.063-1.292 0-2.188-.896-.895-.896-.895-2.188 0-.25.073-.572.072-.323.156-.532Zm6.083 2.333Zm-2.542 1.25Z"/></svg>

<svg xmlns="http://www.w3.org/2000/svg" height="20" width="20"><path d="M12.979 10.479 12.25 9.75Q12.333 8.646 11.552 7.927Q10.771 7.208 9.812 7.312L9.083 6.583Q9.292 6.521 9.521 6.5Q9.75 6.479 10 6.479Q11.292 6.479 12.188 7.375Q13.083 8.271 13.083 9.562Q13.083 9.854 13.052 10.104Q13.021 10.354 12.979 10.479ZM15.583 13.042 14.917 12.417Q15.667 11.833 16.25 11.146Q16.833 10.458 17.25 9.562Q16.229 7.479 14.292 6.281Q12.354 5.083 10 5.083Q9.396 5.083 8.885 5.156Q8.375 5.229 7.875 5.375L7.146 4.646Q7.875 4.375 8.583 4.271Q9.292 4.167 10 4.167Q12.729 4.167 14.979 5.635Q17.229 7.104 18.271 9.562Q17.812 10.562 17.146 11.427Q16.479 12.292 15.583 13.042ZM16.333 17.646 13.125 14.396Q12.583 14.646 11.771 14.823Q10.958 15 10 15Q7.25 15 5.021 13.51Q2.792 12.021 1.729 9.562Q2.188 8.479 2.99 7.531Q3.792 6.583 4.667 5.938L2.333 3.625L3.021 3L16.979 16.979ZM5.292 6.542Q4.583 7.062 3.854 7.865Q3.125 8.667 2.729 9.562Q3.75 11.646 5.688 12.865Q7.625 14.083 10 14.083Q10.667 14.083 11.385 13.969Q12.104 13.854 12.417 13.688L11.125 12.438Q10.979 12.521 10.625 12.583Q10.271 12.646 10 12.646Q8.708 12.646 7.812 11.75Q6.917 10.854 6.917 9.562Q6.917 9.312 6.99 8.99Q7.062 8.667 7.146 8.458ZM11.375 8.875Q11.375 8.875 11.375 8.875Q11.375 8.875 11.375 8.875Q11.375 8.875 11.375 8.875Q11.375 8.875 11.375 8.875Q11.375 8.875 11.375 8.875Q11.375 8.875 11.375 8.875ZM8.833 10.125Q8.833 10.125 8.833 10.125Q8.833 10.125 8.833 10.125Q8.833 10.125 8.833 10.125Q8.833 10.125 8.833 10.125Q8.833 10.125 8.833 10.125Q8.833 10.125 8.833 10.125Z"/></svg>
